X:34
T:Polska från Uppland
T:Svenska Folkdansar H2 nr 34
O:Uppland
B:Traditioner av Svenska Folkdansar Häfte 2, nr 34
R:Polska
Z:Nils L
M:3/4
L:1/16
K:C
c4 edcB c4 | e4 gfed e4 | SGABc d/B/G3 e/c/G3 | f/d/G3 e/c/G3 d4 |
GABc BdBG cecG | dfdG cecG d4 | F2a2 E2g2 D2f2 | (edcB) "^C?"B4 c4 ::
Tg4 Tg4 Tg2(ab) | c'2g2 (g2f2) (f2e2) | TG4 TG4 (TG2AB) | c2G2 (G2F2) (F2E2) S ||

